X: 26509
T: Michael O'Sullivan's
R: jig
M: 6/8
K: Amajor
|:EAc e2a|ece dBG|DED =c2=c|=cAd =cA=G|
EAc e2a|ece def|=gab efg|1 edB A3:|2 edB A2g||
|:aee geg|aba a=ge|d2c def|=gag ge^g|
aee geg|aba a=ge|def =gab|1 edB A2g:|2 edB A3||

